www/assets/icons/forward_5.svg

<svg xmlns="http://www.w3.org/2000/svg" width="24" height="24" viewBox="0 0 24 24" fill='currentColor'><path d="M18 14c0 3.31-2.69 6-6 6s-6-2.69-6-6 2.69-6 6-6v4l5-5-5-5v4c-4.42 0-8 3.58-8 8s3.58 8 8 8 8-3.58 8-8z"/><path d="M12.03 16.38c-.44 0-.58-.31-.6-.56h-.84c.03.85.79 1.25 1.44 1.25.93 0 1.44-.63 1.44-1.43 0-1.33-.97-1.44-1.3-1.44-.2 0-.43.05-.64.16l.11-.92h1.7v-.71h-2.39l-.25 2.17.67.17c.13-.13.28-.23.57-.23.4 0 .69.23.69.75-.01.05.02.79-.6.79"/></svg>

<svg width="24" height="24" viewBox="0 0 24 24" xmlns="http://www.w3.org/2000/svg" fill='currentColor'><path d="M18 14C18 17.31 15.31 20 12 20C8.69 20 6 17.31 6 14C6 10.69 8.69 8 12 8V12L17 7L12 2V6C7.58 6 4 9.58 4 14C4 18.42 7.58 22 12 22C16.42 22 20 18.42 20 14H18Z"/><path d="M12.03 16.38C11.59 16.38 11.45 16.07 11.43 15.82H10.59C10.62 16.67 11.38 17.07 12.03 17.07C12.96 17.07 13.47 16.44 13.47 15.64C13.47 14.31 12.5 14.2 12.17 14.2C11.97 14.2 11.74 14.25 11.53 14.36L11.64 13.44H13.34V12.73H10.95L10.7 14.9L11.37 15.07C11.5 14.94 11.65 14.84 11.94 14.84C12.34 14.84 12.63 15.07 12.63 15.59C12.62 15.64 12.65 16.38 12.03 16.38Z"/></svg>
